Costumes/shoes1.svg

<?xml version="1.0" encoding="UTF-8" standalone="no"?>
<svg
   version="1.1"
   width="67.166908"
   height="37.368362"
   viewBox="4 3 67.166908 37.368362"
   id="svg41"
   sodipodi:docname="shoes1.svg"
   xmlns:inkscape="http://www.inkscape.org/namespaces/inkscape"
   xmlns:sodipodi="http://sodipodi.sourceforge.net/DTD/sodipodi-0.dtd"
   xmlns="http://www.w3.org/2000/svg"
   xmlns:svg="http://www.w3.org/2000/svg">
  <defs
     id="defs45" />
  <sodipodi:namedview
     id="namedview43"
     pagecolor="#ffffff"
     bordercolor="#000000"
     borderopacity="0.25"
     inkscape:showpageshadow="2"
     inkscape:pageopacity="0.0"
     inkscape:pagecheckerboard="0"
     inkscape:deskcolor="#d1d1d1" />
  <!-- Exported by Scratch - http://scratch.mit.edu/ -->
  <g
     id="ID0.5856816666200757"
     transform="matrix(0.94999999,0,0,0.94999999,-1.5839818,-0.88151083)">
    <path
       id="ID0.966071086935699"
       fill="#000000"
       stroke="#000000"
       stroke-width="2"
       stroke-linecap="round"
       d="m 150.75,332.5 -9.75,12.25 4.75,1.25 6.5,-6.75 z"
       transform="matrix(-0.85737497,0,0,0.85737497,137.35,-263.8)" />
    <path
       id="ID0.28506059385836124"
       fill="#666666"
       stroke="#000000"
       stroke-width="2"
       d="m 127.45,271.15 c 3.803,0.08 7.157,1.236 10.6,0.8 1.411,-0.067 2.1,-2.877 3.25,-2.25 2.562,1.514 2.675,4.764 4.6,6.8 1.772,1.661 4.638,1.988 6.3,4.1 0.53,0.677 -0.714,1.532 -1.05,2.3 -1.132,2.545 -1.994,5.32 -3.75,7.5 -0.658,0.79 -1.76,0.73 -3.25,1.05 -5.455,0.941 -11.003,2.528 -16.65,2.55 -4.702,0.019 -9.906,-0.339 -13.85,-2.7 -3.45,-2.328 -6.558,-6.4 -6.65,-10.3 -0.083,-3.647 2.697,-7.527 6,-9.2 4.246,-2.122 9.635,-0.742 14.45,-0.65 z"
       transform="matrix(-0.68840301,-0.51107049,-0.51107049,0.68840301,257.1,-99.9)" />
    <path
       id="path4"
       fill="#7f7f7f"
       stroke="#000000"
       stroke-width="2"
       d="m 127.45,271.15 c 3.803,0.08 7.132,1.505 10.6,0.8 1.994,-0.407 2.841,-3.392 4.85,-3.9 0.979,-0.246 0.862,1.727 1.5,2.2 2.177,1.193 4.928,1.294 6.7,2.65 1.258,0.999 1.792,2.761 2.55,4.1 0.529,0.903 1.425,1.967 1.05,2.95 -1.451,3.8 -3.518,7.612 -6.25,10.5 -1.356,1.434 -3.743,1.28 -5.7,1.65 -5.88,1.041 -11.971,3.078 -18.05,2.75 -4.61,-0.266 -9.63,-1.566 -13.25,-4.5 -3.354,-2.912 -6.58,-7.373 -6.25,-11.85 0.284,-3.397 4.562,-5.551 7.8,-6.7 4.538,-1.607 9.635,-0.742 14.45,-0.65 z"
       transform="matrix(-0.6246379,-0.46373126,-0.44827357,0.60381663,231.25,-83.95)" />
    <path
       id="ID0.868237994145602"
       fill="none"
       stroke="#000000"
       stroke-width="2"
       stroke-linecap="round"
       d="M 136.5,326.9 Z"
       transform="matrix(-0.85737497,0,0,0.85737497,137.15,-264)" />
    <path
       id="ID0.9931649724021554"
       fill="none"
       stroke="#000000"
       stroke-width="1"
       stroke-linecap="round"
       d="m 126.25,331 3.5,1.25 6.5,-5.5 -0.75,-6"
       transform="matrix(-0.85737497,0,0,0.85737497,137.15,-264)" />
    <path
       id="ID0.7034772103652358"
       fill="none"
       stroke="#000000"
       stroke-width="1"
       stroke-linecap="round"
       d="m 141.75,343.25 -4.5,-6.25 7.5,-7.5 4,-6"
       transform="matrix(-0.85737497,0,0,0.85737497,137.15,-264)" />
    <g
       id="ID0.7672867947258055">
      <path
         id="ID0.485372981056571"
         fill="none"
         stroke="#000000"
         stroke-width="1"
         d="m 135.45,336.6 c 0.469,0 0.894,0.185 1.202,0.484 0.308,0.298 0.498,0.711 0.498,1.166 0,0.455 -0.19,0.868 -0.498,1.166 -0.308,0.299 -0.733,0.484 -1.202,0.484 -0.469,0 -0.894,-0.185 -1.202,-0.484 -0.308,-0.298 -0.498,-0.711 -0.498,-1.166 0,-0.455 0.19,-0.868 0.498,-1.166 0.308,-0.299 0.733,-0.484 1.202,-0.484 z"
         transform="matrix(-0.75994599,0,0,0.75994599,121.05,-233.45)" />
      <path
         id="path10"
         fill="none"
         stroke="#000000"
         stroke-width="1"
         d="m 135.45,336.6 c 0.469,0 0.894,0.185 1.202,0.484 0.308,0.298 0.498,0.711 0.498,1.166 0,0.455 -0.19,0.868 -0.498,1.166 -0.308,0.299 -0.733,0.484 -1.202,0.484 -0.469,0 -0.894,-0.185 -1.202,-0.484 -0.308,-0.298 -0.498,-0.711 -0.498,-1.166 0,-0.455 0.19,-0.868 0.498,-1.166 0.308,-0.299 0.733,-0.484 1.202,-0.484 z"
         transform="matrix(-0.75994599,0,0,0.75994599,118.05,-236.15)" />
      <path
         id="path12"
         fill="none"
         stroke="#000000"
         stroke-width="1"
         d="m 135.45,336.6 c 0.469,0 0.894,0.185 1.202,0.484 0.308,0.298 0.498,0.711 0.498,1.166 0,0.455 -0.19,0.868 -0.498,1.166 -0.308,0.299 -0.733,0.484 -1.202,0.484 -0.469,0 -0.894,-0.185 -1.202,-0.484 -0.308,-0.298 -0.498,-0.711 -0.498,-1.166 0,-0.455 0.19,-0.868 0.498,-1.166 0.308,-0.299 0.733,-0.484 1.202,-0.484 z"
         transform="matrix(-0.75994599,0,0,0.75994599,124.85,-240.4)" />
      <path
         id="path14"
         fill="none"
         stroke="#000000"
         stroke-width="1"
         stroke-linecap="round"
         d="m 135.45,336.6 c 0.469,0 0.894,0.185 1.202,0.484 0.308,0.298 0.498,0.711 0.498,1.166 0,0.455 -0.19,0.868 -0.498,1.166 -0.308,0.299 -0.733,0.484 -1.202,0.484 -0.469,0 -0.894,-0.185 -1.202,-0.484 -0.308,-0.298 -0.498,-0.711 -0.498,-1.166 0,-0.455 0.19,-0.868 0.498,-1.166 0.308,-0.299 0.733,-0.484 1.202,-0.484 z"
         transform="matrix(-0.75994599,0,0,0.75994599,128.05,-237.75)" />
    </g>
    <path
       id="ID0.5520394304767251"
       fill="none"
       stroke="#000000"
       stroke-width="1"
       stroke-linecap="round"
       d="m 138.9,335.4 -8.3,-5.1"
       transform="matrix(-0.85737497,0,0,0.85737497,137.15,-264)" />
    <path
       id="ID0.5189701002091169"
       fill="none"
       stroke="#000000"
       stroke-width="1"
       stroke-linecap="round"
       d="m 142.4,332.25 -8,-4.85"
       transform="matrix(-0.85737497,0,0,0.85737497,137.15,-264)" />
    <path
       id="path19"
       fill="#666666"
       stroke="#000000"
       stroke-width="2"
       d="m 127.45,271.15 c 3.803,0.08 7.157,1.236 10.6,0.8 1.411,-0.067 2.1,-2.877 3.25,-2.25 2.562,1.514 2.537,5.01 4.6,6.8 1.624,1.405 4.679,0.484 6.25,2 0.784,0.768 -0.742,2.011 -1.2,3 -1.258,3.624 -2.407,7.334 -3.95,10.85 -0.389,0.884 -0.389,1.227 -0.75,1.35 -2.024,0.259 -3.979,0.055 -5.7,-0.3 -0.42,-0.087 0.523,-1.049 -0.55,-1.1 -4.298,-0.211 -8.809,0.484 -13.2,0.2 -3.289,-0.207 -6.674,-0.473 -9.85,-1.5 -2.774,-1.058 -5.855,-2.301 -7.7,-4.65 -1.671,-2.132 -2.644,-5.426 -1.95,-7.9 0.793,-2.805 2.892,-5.596 5.7,-6.65 4.511,-1.685 9.635,-0.742 14.45,-0.65 z"
       transform="matrix(-0.76943302,-0.37823886,-0.37823886,0.76943302,263.45,-147.65)" />
    <path
       id="path21"
       fill="#7f7f7f"
       stroke="#000000"
       stroke-width="2"
       d="m 127.45,271.15 c 3.803,0.08 7.102,1.315 10.6,0.8 1.137,-0.172 0.775,-2.784 1.95,-3.1 1.783,-0.471 3.872,0.006 5.3,1.1 1.492,1.128 1.25,3.989 2.6,5.5 1.375,1.536 4.573,0.956 5.45,2.75 0.717,1.65 -1,3.505 -1.55,5.25 -1.077,2.324 -2.188,4.697 -3.35,7 -0.467,0.905 0.957,2.435 -1,2.55 -8.339,0.66 -16.814,0.188 -24.9,-0.6 -3.548,-0.346 -7.17,-1.143 -10.35,-2.75 -2.355,-1.193 -4.538,-2.834 -5.95,-4.9 -1.173,-2.031 -2.399,-4.842 -1.4,-6.75 1.606,-3.006 4.919,-5.131 8.15,-6.2 4.571,-1.508 9.635,-0.742 14.45,-0.65 z"
       transform="matrix(-0.69816226,-0.34320351,-0.33176342,0.67489016,240.8,-127.4)" />
    <path
       id="path23"
       fill="none"
       stroke="#000000"
       stroke-width="2"
       stroke-linecap="round"
       d="M 136.5,326.9 Z"
       transform="matrix(-0.84325624,0.15495406,0.15495406,0.84325624,115.7,-287.4)" />
    <path
       id="ID0.7954719536937773"
       fill="none"
       stroke="#000000"
       stroke-width="1"
       stroke-linecap="round"
       d="m 108.05,318 -1.75,4.75 -10.55,7 2.5,8.5"
       transform="matrix(-0.85737497,0,0,0.85737497,138,-264.45)" />
    <g
       id="g34">
      <path
         id="path26"
         fill="none"
         stroke="#000000"
         stroke-width="1"
         d="m 135.45,336.6 c 0.469,0 0.894,0.185 1.202,0.484 0.308,0.298 0.498,0.711 0.498,1.166 0,0.455 -0.19,0.868 -0.498,1.166 -0.308,0.299 -0.733,0.484 -1.202,0.484 -0.469,0 -0.894,-0.185 -1.202,-0.484 -0.308,-0.298 -0.498,-0.711 -0.498,-1.166 0,-0.455 0.19,-0.868 0.498,-1.166 0.308,-0.299 0.733,-0.484 1.202,-0.484 z"
         transform="matrix(-0.74743164,0.13734564,0.13734564,0.74743164,109.1,-254.1)" />
      <path
         id="path28"
         fill="none"
         stroke="#000000"
         stroke-width="1"
         d="m 135.45,336.6 c 0.469,0 0.894,0.185 1.202,0.484 0.308,0.298 0.498,0.711 0.498,1.166 0,0.455 -0.19,0.868 -0.498,1.166 -0.308,0.299 -0.733,0.484 -1.202,0.484 -0.469,0 -0.894,-0.185 -1.202,-0.484 -0.308,-0.298 -0.498,-0.711 -0.498,-1.166 0,-0.455 0.19,-0.868 0.498,-1.166 0.308,-0.299 0.733,-0.484 1.202,-0.484 z"
         transform="matrix(-0.74743164,0.13734564,0.13734564,0.74743164,105.7,-256.2)" />
      <path
         id="path30"
         fill="none"
         stroke="#000000"
         stroke-width="1"
         d="m 135.45,336.6 c 0.469,0 0.894,0.185 1.202,0.484 0.308,0.298 0.498,0.711 0.498,1.166 0,0.455 -0.19,0.868 -0.498,1.166 -0.308,0.299 -0.733,0.484 -1.202,0.484 -0.469,0 -0.894,-0.185 -1.202,-0.484 -0.308,-0.298 -0.498,-0.711 -0.498,-1.166 0,-0.455 0.19,-0.868 0.498,-1.166 0.308,-0.299 0.733,-0.484 1.202,-0.484 z"
         transform="matrix(-0.74743164,0.13734564,0.13734564,0.74743164,111.6,-261.65)" />
      <path
         id="path32"
         fill="none"
         stroke="#000000"
         stroke-width="1"
         stroke-linecap="round"
         d="m 135.45,336.6 c 0.469,0 0.894,0.185 1.202,0.484 0.308,0.298 0.498,0.711 0.498,1.166 0,0.455 -0.19,0.868 -0.498,1.166 -0.308,0.299 -0.733,0.484 -1.202,0.484 -0.469,0 -0.894,-0.185 -1.202,-0.484 -0.308,-0.298 -0.498,-0.711 -0.498,-1.166 0,-0.455 0.19,-0.868 0.498,-1.166 0.308,-0.299 0.733,-0.484 1.202,-0.484 z"
         transform="matrix(-0.74743164,0.13734564,0.13734564,0.74743164,115.25,-259.6)" />
    </g>
    <path
       id="path36"
       fill="none"
       stroke="#000000"
       stroke-width="1"
       stroke-linecap="round"
       d="m 138.9,335.4 -8.3,-5.1"
       transform="matrix(-0.84325624,0.15495406,0.15495406,0.84325624,119.35,-287)" />
    <path
       id="path38"
       fill="none"
       stroke="#000000"
       stroke-width="1"
       stroke-linecap="round"
       d="m 142.4,332.25 -8,-4.85"
       transform="matrix(-0.84325624,0.15495406,0.15495406,0.84325624,119.35,-287)" />
  </g>
</svg>

<svg version="1.1" width="73" height="42" viewBox="4 3 73 42" xmlns="http://www.w3.org/2000/svg" xmlns:xlink="http://www.w3.org/1999/xlink">
  <!-- Exported by Scratch - http://scratch.mit.edu/ -->
  <g id="ID0.5856816666200757" transform="matrix(0.949999988079071, 0, 0, 0.949999988079071, 0, 0.15)">
    <path id="ID0.966071086935699" fill="#000000" stroke="#000000" stroke-width="2" stroke-linecap="round" d="M 150.750 332.500 L 141 344.750 L 145.750 346 L 152.250 339.250 L 150.750 332.500 Z " transform="matrix(-0.8573749661445618, 0, 0, 0.8573749661445618, 137.35, -263.8)"/>
    <path id="ID0.28506059385836124" fill="#666666" stroke="#000000" stroke-width="2" d="M 127.450 271.150 C 131.253 271.230 134.607 272.386 138.050 271.950 C 139.461 271.883 140.150 269.073 141.300 269.700 C 143.862 271.214 143.975 274.464 145.900 276.500 C 147.672 278.161 150.538 278.488 152.200 280.600 C 152.730 281.277 151.486 282.132 151.150 282.900 C 150.018 285.445 149.156 288.220 147.400 290.400 C 146.742 291.190 145.640 291.130 144.150 291.450 C 138.695 292.391 133.147 293.978 127.500 294 C 122.798 294.019 117.594 293.661 113.650 291.300 C 110.200 288.972 107.092 284.900 107 281 C 106.917 277.353 109.697 273.473 113 271.800 C 117.246 269.678 122.635 271.058 127.450 271.150 Z " transform="matrix(-0.6884030103683472, -0.5110704898834229, -0.5110704898834229, 0.6884030103683472, 257.1, -99.9)"/>
    <path id="ID0.28506059385836124" fill="#7F7F7F" stroke="#000000" stroke-width="2" d="M 127.450 271.150 C 131.253 271.230 134.582 272.655 138.050 271.950 C 140.044 271.543 140.891 268.558 142.900 268.050 C 143.879 267.804 143.762 269.777 144.400 270.250 C 146.577 271.443 149.328 271.544 151.100 272.900 C 152.358 273.899 152.892 275.661 153.650 277 C 154.179 277.903 155.075 278.967 154.700 279.950 C 153.249 283.750 151.182 287.562 148.450 290.450 C 147.094 291.884 144.707 291.730 142.750 292.100 C 136.870 293.141 130.779 295.178 124.700 294.850 C 120.090 294.584 115.070 293.284 111.450 290.350 C 108.096 287.438 104.870 282.977 105.200 278.500 C 105.484 275.103 109.762 272.949 113 271.800 C 117.538 270.193 122.635 271.058 127.450 271.150 Z " transform="matrix(-0.6246379017829895, -0.4637312591075897, -0.44827356934547424, 0.6038166284561157, 231.25, -83.95)"/>
    <path id="ID0.868237994145602" fill="none" stroke="#000000" stroke-width="2" stroke-linecap="round" d="M 136.500 326.900 L 136.500 326.900 Z " transform="matrix(-0.8573749661445618, 0, 0, 0.8573749661445618, 137.15, -264)"/>
    <path id="ID0.9931649724021554" fill="none" stroke="#000000" stroke-width="1" stroke-linecap="round" d="M 126.250 331 L 129.750 332.250 L 136.250 326.750 L 135.500 320.750 " transform="matrix(-0.8573749661445618, 0, 0, 0.8573749661445618, 137.15, -264)"/>
    <path id="ID0.7034772103652358" fill="none" stroke="#000000" stroke-width="1" stroke-linecap="round" d="M 141.750 343.250 L 137.250 337 L 144.750 329.500 L 148.750 323.500 " transform="matrix(-0.8573749661445618, 0, 0, 0.8573749661445618, 137.15, -264)"/>
    <g id="ID0.7672867947258055">
      <path id="ID0.485372981056571" fill="none" stroke="#000000" stroke-width="1" d="M 135.450 336.600 C 135.919 336.600 136.344 336.785 136.652 337.084 C 136.960 337.382 137.150 337.795 137.150 338.250 C 137.150 338.705 136.960 339.118 136.652 339.416 C 136.344 339.715 135.919 339.900 135.450 339.900 C 134.981 339.900 134.556 339.715 134.248 339.416 C 133.940 339.118 133.750 338.705 133.750 338.250 C 133.750 337.795 133.940 337.382 134.248 337.084 C 134.556 336.785 134.981 336.600 135.450 336.600 Z " transform="matrix(-0.7599459886550903, 0, 0, 0.7599459886550903, 121.05, -233.45)"/>
      <path id="ID0.485372981056571" fill="none" stroke="#000000" stroke-width="1" d="M 135.450 336.600 C 135.919 336.600 136.344 336.785 136.652 337.084 C 136.960 337.382 137.150 337.795 137.150 338.250 C 137.150 338.705 136.960 339.118 136.652 339.416 C 136.344 339.715 135.919 339.900 135.450 339.900 C 134.981 339.900 134.556 339.715 134.248 339.416 C 133.940 339.118 133.750 338.705 133.750 338.250 C 133.750 337.795 133.940 337.382 134.248 337.084 C 134.556 336.785 134.981 336.600 135.450 336.600 Z " transform="matrix(-0.7599459886550903, 0, 0, 0.7599459886550903, 118.05, -236.15)"/>
      <path id="ID0.485372981056571" fill="none" stroke="#000000" stroke-width="1" d="M 135.450 336.600 C 135.919 336.600 136.344 336.785 136.652 337.084 C 136.960 337.382 137.150 337.795 137.150 338.250 C 137.150 338.705 136.960 339.118 136.652 339.416 C 136.344 339.715 135.919 339.900 135.450 339.900 C 134.981 339.900 134.556 339.715 134.248 339.416 C 133.940 339.118 133.750 338.705 133.750 338.250 C 133.750 337.795 133.940 337.382 134.248 337.084 C 134.556 336.785 134.981 336.600 135.450 336.600 Z " transform="matrix(-0.7599459886550903, 0, 0, 0.7599459886550903, 124.85, -240.4)"/>
      <path id="ID0.485372981056571" fill="none" stroke="#000000" stroke-width="1" stroke-linecap="round" d="M 135.450 336.600 C 135.919 336.600 136.344 336.785 136.652 337.084 C 136.960 337.382 137.150 337.795 137.150 338.250 C 137.150 338.705 136.960 339.118 136.652 339.416 C 136.344 339.715 135.919 339.900 135.450 339.900 C 134.981 339.900 134.556 339.715 134.248 339.416 C 133.940 339.118 133.750 338.705 133.750 338.250 C 133.750 337.795 133.940 337.382 134.248 337.084 C 134.556 336.785 134.981 336.600 135.450 336.600 Z " transform="matrix(-0.7599459886550903, 0, 0, 0.7599459886550903, 128.05, -237.75)"/>
    </g>
    <path id="ID0.5520394304767251" fill="none" stroke="#000000" stroke-width="1" stroke-linecap="round" d="M 138.900 335.400 L 130.600 330.300 " transform="matrix(-0.8573749661445618, 0, 0, 0.8573749661445618, 137.15, -264)"/>
    <path id="ID0.5189701002091169" fill="none" stroke="#000000" stroke-width="1" stroke-linecap="round" d="M 142.400 332.250 L 134.400 327.400 " transform="matrix(-0.8573749661445618, 0, 0, 0.8573749661445618, 137.15, -264)"/>
    <path id="ID0.28506059385836124" fill="#666666" stroke="#000000" stroke-width="2" d="M 127.450 271.150 C 131.253 271.230 134.607 272.386 138.050 271.950 C 139.461 271.883 140.150 269.073 141.300 269.700 C 143.862 271.214 143.837 274.710 145.900 276.500 C 147.524 277.905 150.579 276.984 152.150 278.500 C 152.934 279.268 151.408 280.511 150.950 281.500 C 149.692 285.124 148.543 288.834 147 292.350 C 146.611 293.234 146.611 293.577 146.250 293.700 C 144.226 293.959 142.271 293.755 140.550 293.400 C 140.130 293.313 141.073 292.351 140 292.300 C 135.702 292.089 131.191 292.784 126.800 292.500 C 123.511 292.293 120.126 292.027 116.950 291 C 114.176 289.942 111.095 288.699 109.250 286.350 C 107.579 284.218 106.606 280.924 107.300 278.450 C 108.093 275.645 110.192 272.854 113 271.800 C 117.511 270.115 122.635 271.058 127.450 271.150 Z " transform="matrix(-0.7694330215454102, -0.37823885679244995, -0.37823885679244995, 0.7694330215454102, 263.45, -147.65)"/>
    <path id="ID0.28506059385836124" fill="#7F7F7F" stroke="#000000" stroke-width="2" d="M 127.450 271.150 C 131.253 271.230 134.552 272.465 138.050 271.950 C 139.187 271.778 138.825 269.166 140 268.850 C 141.783 268.379 143.872 268.856 145.300 269.950 C 146.792 271.078 146.550 273.939 147.900 275.450 C 149.275 276.986 152.473 276.406 153.350 278.200 C 154.067 279.850 152.350 281.705 151.800 283.450 C 150.723 285.774 149.612 288.147 148.450 290.450 C 147.983 291.355 149.407 292.885 147.450 293 C 139.111 293.660 130.636 293.188 122.550 292.400 C 119.002 292.054 115.380 291.257 112.200 289.650 C 109.845 288.457 107.662 286.816 106.250 284.750 C 105.077 282.719 103.851 279.908 104.850 278 C 106.456 274.994 109.769 272.869 113 271.800 C 117.571 270.292 122.635 271.058 127.450 271.150 Z " transform="matrix(-0.6981622576713562, -0.34320351481437683, -0.3317634165287018, 0.6748901605606079, 240.8, -127.4)"/>
    <path id="ID0.868237994145602" fill="none" stroke="#000000" stroke-width="2" stroke-linecap="round" d="M 136.500 326.900 L 136.500 326.900 Z " transform="matrix(-0.8432562351226807, 0.15495406091213226, 0.15495406091213226, 0.8432562351226807, 115.7, -287.4)"/>
    <path id="ID0.7954719536937773" fill="none" stroke="#000000" stroke-width="1" stroke-linecap="round" d="M 108.050 318 L 106.300 322.750 L 95.750 329.750 L 98.250 338.250 " transform="matrix(-0.8573749661445618, 0, 0, 0.8573749661445618, 138, -264.45)"/>
    <g id="ID0.7672867947258055">
      <path id="ID0.485372981056571" fill="none" stroke="#000000" stroke-width="1" d="M 135.450 336.600 C 135.919 336.600 136.344 336.785 136.652 337.084 C 136.960 337.382 137.150 337.795 137.150 338.250 C 137.150 338.705 136.960 339.118 136.652 339.416 C 136.344 339.715 135.919 339.900 135.450 339.900 C 134.981 339.900 134.556 339.715 134.248 339.416 C 133.940 339.118 133.750 338.705 133.750 338.250 C 133.750 337.795 133.940 337.382 134.248 337.084 C 134.556 336.785 134.981 336.600 135.450 336.600 Z " transform="matrix(-0.7474316358566284, 0.13734564185142517, 0.13734564185142517, 0.7474316358566284, 109.1, -254.1)"/>
      <path id="ID0.485372981056571" fill="none" stroke="#000000" stroke-width="1" d="M 135.450 336.600 C 135.919 336.600 136.344 336.785 136.652 337.084 C 136.960 337.382 137.150 337.795 137.150 338.250 C 137.150 338.705 136.960 339.118 136.652 339.416 C 136.344 339.715 135.919 339.900 135.450 339.900 C 134.981 339.900 134.556 339.715 134.248 339.416 C 133.940 339.118 133.750 338.705 133.750 338.250 C 133.750 337.795 133.940 337.382 134.248 337.084 C 134.556 336.785 134.981 336.600 135.450 336.600 Z " transform="matrix(-0.7474316358566284, 0.13734564185142517, 0.13734564185142517, 0.7474316358566284, 105.7, -256.2)"/>
      <path id="ID0.485372981056571" fill="none" stroke="#000000" stroke-width="1" d="M 135.450 336.600 C 135.919 336.600 136.344 336.785 136.652 337.084 C 136.960 337.382 137.150 337.795 137.150 338.250 C 137.150 338.705 136.960 339.118 136.652 339.416 C 136.344 339.715 135.919 339.900 135.450 339.900 C 134.981 339.900 134.556 339.715 134.248 339.416 C 133.940 339.118 133.750 338.705 133.750 338.250 C 133.750 337.795 133.940 337.382 134.248 337.084 C 134.556 336.785 134.981 336.600 135.450 336.600 Z " transform="matrix(-0.7474316358566284, 0.13734564185142517, 0.13734564185142517, 0.7474316358566284, 111.6, -261.65)"/>
      <path id="ID0.485372981056571" fill="none" stroke="#000000" stroke-width="1" stroke-linecap="round" d="M 135.450 336.600 C 135.919 336.600 136.344 336.785 136.652 337.084 C 136.960 337.382 137.150 337.795 137.150 338.250 C 137.150 338.705 136.960 339.118 136.652 339.416 C 136.344 339.715 135.919 339.900 135.450 339.900 C 134.981 339.900 134.556 339.715 134.248 339.416 C 133.940 339.118 133.750 338.705 133.750 338.250 C 133.750 337.795 133.940 337.382 134.248 337.084 C 134.556 336.785 134.981 336.600 135.450 336.600 Z " transform="matrix(-0.7474316358566284, 0.13734564185142517, 0.13734564185142517, 0.7474316358566284, 115.25, -259.6)"/>
    </g>
    <path id="ID0.5520394304767251" fill="none" stroke="#000000" stroke-width="1" stroke-linecap="round" d="M 138.900 335.400 L 130.600 330.300 " transform="matrix(-0.8432562351226807, 0.15495406091213226, 0.15495406091213226, 0.8432562351226807, 119.35, -287)"/>
    <path id="ID0.5189701002091169" fill="none" stroke="#000000" stroke-width="1" stroke-linecap="round" d="M 142.400 332.250 L 134.400 327.400 " transform="matrix(-0.8432562351226807, 0.15495406091213226, 0.15495406091213226, 0.8432562351226807, 119.35, -287)"/>
  </g>
</svg>
